Prettier.Code.Text.Letter.P.svg

<svg height="100%" stroke-miterlimit="10" style="fill-rule:nonzero;clip-rule:evenodd;stroke-linecap:round;stroke-linejoin:round;" version="1.1" viewBox="3.02167 3.10729 93.9567 93.953" width="100%" xml:space="preserve" xmlns="http://www.w3.org/2000/svg" xmlns:vectornator="http://vectornator.io" xmlns:xlink="http://www.w3.org/1999/xlink">
<defs>
<filter color-interpolation-filters="sRGB" filterUnits="userSpaceOnUse" height="93.953" id="Filter" width="93.9567" x="3.02167" y="3.10729">
<feDropShadow dx="5.12919e-18" dy="0.0837661" flood-color="#000000" flood-opacity="0.55" in="SourceGraphic" result="Shadow" stdDeviation="1.05722"/>
</filter>
</defs>
<clipPath id="ArtboardFrame">
<rect height="93.953" width="93.9567" x="3.02167" y="3.10729"/>
</clipPath>
<g clip-path="url(#ArtboardFrame)" id="Layer" layerName="Layer">
<g filter="url(#Filter)" layerName="Group 5" shadowAngle="1.5708" shadowColor="#000000" shadowOffset="0.0837661" shadowOpacity="0.55" shadowRadius="2.11443">
<path d="M71.111 22.5546L75.3339 22.5546C76.499 22.5546 77.4435 23.4991 77.4435 24.6642C77.4435 25.8293 76.499 26.7739 75.3339 26.7739L71.111 26.7739C69.9459 26.7739 69.0014 25.8293 69.0014 24.6642C69.0014 23.4991 69.9459 22.5546 71.111 22.5546Z" fill="#07eff8" fill-rule="nonzero" opacity="1" stroke="none" layerName="path"/>
<path d="M7.77434 90.1142L28.8853 90.1142C30.0504 90.1142 30.9949 91.0587 30.9949 92.2238C30.9949 93.3889 30.0504 94.3334 28.8853 94.3334L7.77434 94.3334C6.61067 94.3334 5.66676 93.3912 5.66472 92.2275C5.66374 91.6674 5.88557 91.1298 6.28131 90.7334C6.67704 90.337 7.21419 90.1142 7.77434 90.1142Z" fill="#ff00ff" fill-rule="nonzero" opacity="1" stroke="none" layerName="path 1"/>
<path d="M58.4459 56.3344L71.1147 56.3344C72.2798 56.3344 73.2243 57.2789 73.2243 58.444C73.2243 59.6091 72.2798 60.5536 71.1147 60.5536L58.4459 60.5536C57.2808 60.5536 56.3363 59.6091 56.3363 58.444C56.3363 57.2789 57.2808 56.3344 58.4459 56.3344Z" fill="#7600ff" fill-rule="nonzero" opacity="1" stroke="none" layerName="path 2"/>
<path d="M33.112 56.3344L50 56.3344C51.1651 56.3344 52.1096 57.2789 52.1096 58.444C52.1096 59.6091 51.1651 60.5536 50 60.5536L33.112 60.5536C31.9468 60.5536 31.0023 59.6091 31.0023 58.444C31.0023 57.2789 31.9468 56.3344 33.112 56.3344Z" fill="#ff00ff" fill-rule="nonzero" opacity="1" stroke="none" layerName="path 3"/>
<path d="M7.77434 56.3344L24.6661 56.3344C25.8312 56.3344 26.7757 57.2789 26.7757 58.444C26.7757 59.6091 25.8312 60.5536 24.6661 60.5536L7.77434 60.5536C6.61067 60.5536 5.66676 59.6114 5.66472 58.4477C5.66374 57.8876 5.88557 57.35 6.28131 56.9536C6.67704 56.5572 7.21419 56.3344 7.77434 56.3344Z" fill="#07eff8" fill-rule="nonzero" opacity="1" stroke="none" layerName="path 4"/>
<path d="M7.77434 73.2261L28.8853 73.2261C30.0504 73.2261 30.9949 74.1707 30.9949 75.3358C30.9949 76.5009 30.0504 77.4454 28.8853 77.4454L7.77434 77.4454C6.60923 77.4454 5.66472 76.5009 5.66472 75.3358C5.66472 74.1707 6.60923 73.2261 7.77434 73.2261ZM7.77434 39.4464L28.8853 39.4464C30.0504 39.4464 30.9949 40.3909 30.9949 41.556C30.9949 42.7211 30.0504 43.6656 28.8853 43.6656L7.77434 43.6656C6.60923 43.6656 5.66472 42.7211 5.66472 41.556C5.66472 40.3909 6.60923 39.4464 7.77434 39.4464Z" fill="#7600ff" fill-rule="nonzero" opacity="1" stroke="none" layerName="path 5"/>
<path d="M28.889 14.1124L71.111 14.1124C72.2761 14.1124 73.2206 15.0569 73.2206 16.2221C73.2206 17.3872 72.2761 18.3317 71.111 18.3317L28.889 18.3317C27.7239 18.3317 26.7794 17.3872 26.7794 16.2221C26.7794 15.0569 27.7239 14.1124 28.889 14.1124Z" fill="#f7ba3e" fill-rule="nonzero" opacity="1" stroke="none" layerName="path 6"/>
<path d="M7.77434 14.1124L20.4431 14.1124C21.6083 14.1124 22.5528 15.0569 22.5528 16.2221C22.5537 16.7822 22.3319 17.3197 21.9362 17.7162C21.5404 18.1126 21.0033 18.3354 20.4431 18.3354L7.77434 18.3354C7.21419 18.3354 6.67704 18.1126 6.28131 17.7162C5.88557 17.3197 5.66374 16.7822 5.66472 16.2221C5.66472 15.0569 6.60923 14.1124 7.77434 14.1124Z" fill="#ff00ff" fill-rule="nonzero" opacity="1" stroke="none" layerName="path 7"/>
<path d="M24.6661 81.6683L28.889 81.6683C30.0541 81.6683 30.9986 82.6128 30.9986 83.7779C30.9986 84.9431 30.0541 85.8876 28.889 85.8876L24.6661 85.8876C23.501 85.8876 22.5565 84.9431 22.5565 83.7779C22.5565 82.6128 23.501 81.6683 24.6661 81.6683Z" fill="#f7ba3e" fill-rule="nonzero" opacity="1" stroke="none" layerName="path 8"/>
<path d="M24.6661 31.0005L28.889 31.0005C30.0541 31.0005 30.9986 31.945 30.9986 33.1101C30.9986 34.2752 30.0541 35.2197 28.889 35.2197L24.6661 35.2197C23.501 35.2197 22.5565 34.2752 22.5565 33.1101C22.5565 31.945 23.501 31.0005 24.6661 31.0005ZM7.77434 81.6683L16.2202 81.6683C17.3853 81.6683 18.3298 82.6128 18.3298 83.7779C18.3298 84.9431 17.3853 85.8876 16.2202 85.8876L7.77434 85.8876C6.61067 85.8876 5.66676 84.9453 5.66472 83.7816C5.66374 83.2215 5.88557 82.684 6.28131 82.2875C6.67704 81.8911 7.21419 81.6683 7.77434 81.6683Z" fill="#07eff8" fill-rule="nonzero" opacity="1" stroke="none" layerName="path 9"/>
<path d="M7.77434 31.0005L16.2202 31.0005C17.3853 31.0005 18.3298 31.945 18.3298 33.1101C18.3308 33.6703 18.109 34.2078 17.7132 34.6042C17.3175 35.0007 16.7804 35.2234 16.2202 35.2234L7.77434 35.2234C6.60923 35.2234 5.66472 34.2789 5.66472 33.1138C5.66374 32.5537 5.88557 32.0161 6.28131 31.6197C6.67704 31.2233 7.21419 31.0005 7.77434 31.0005Z" fill="#f7ba3e" fill-rule="nonzero" opacity="1" stroke="none" layerName="path 10"/>
<path d="M62.6688 81.6683L66.8917 81.6683C68.0569 81.6683 69.0014 82.6128 69.0014 83.7779C69.0014 84.9431 68.0569 85.8876 66.8917 85.8876L62.6688 85.8876C61.5037 85.8876 60.5592 84.9431 60.5592 83.7779C60.5592 82.6128 61.5037 81.6683 62.6688 81.6683ZM37.3312 81.6683L54.2192 81.6683C55.3844 81.6683 56.3289 82.6128 56.3289 83.7779C56.3289 84.9431 55.3844 85.8876 54.2192 85.8876L37.3312 85.8876C36.1675 85.8876 35.2236 84.9453 35.2216 83.7816C35.2206 83.2215 35.4424 82.684 35.8382 82.2875C36.2339 81.8911 36.771 81.6683 37.3312 81.6683ZM75.3339 81.6683L92.222 81.6683C93.3871 81.6683 94.3316 82.6128 94.3316 83.7779C94.3316 84.9431 93.3871 85.8876 92.222 85.8876L75.3339 85.8876C74.1688 85.8876 73.2243 84.9431 73.2243 83.7779C73.2243 82.6128 74.1688 81.6683 75.3339 81.6683Z" fill="#efefef" fill-rule="nonzero" opacity="0.5" stroke="none" layerName="path 11"/>
<path d="M41.5541 47.8922L75.3339 47.8922C76.499 47.8922 77.4435 48.8367 77.4435 50.0018C77.4435 51.167 76.499 52.1115 75.3339 52.1115L41.5541 52.1115C40.389 52.1115 39.4445 51.167 39.4445 50.0018C39.4445 48.8367 40.389 47.8922 41.5541 47.8922Z" fill="#07eff8" fill-rule="nonzero" opacity="1" stroke="none" layerName="path 12"/>
<path d="M20.4431 47.8922L33.112 47.8922C34.2771 47.8922 35.2216 48.8367 35.2216 50.0018C35.2216 51.167 34.2771 52.1115 33.112 52.1115L20.4431 52.1115C19.278 52.1115 18.3335 51.167 18.3335 50.0018C18.3335 48.8367 19.278 47.8922 20.4431 47.8922Z" fill="#f7ba3e" fill-rule="nonzero" opacity="1" stroke="none" layerName="path 13"/>
<path d="M7.77434 47.8922L11.9973 47.8922C12.5574 47.8912 13.095 48.1131 13.4914 48.5088C13.8878 48.9046 14.1106 49.4417 14.1106 50.0018C14.1106 51.167 13.1661 52.1115 12.001 52.1115L7.77434 52.1115C6.60923 52.1115 5.66472 51.167 5.66472 50.0018C5.66472 48.8367 6.60923 47.8922 7.77434 47.8922Z" fill="#ff00ff" fill-rule="nonzero" opacity="1" stroke="none" layerName="path 14"/>
<path d="M45.7771 22.5546L62.6651 22.5546C63.2259 22.5536 63.764 22.776 64.1605 23.1725C64.5571 23.569 64.7794 24.1071 64.7784 24.6679C64.7784 25.833 63.8339 26.7776 62.6688 26.7776L45.7771 26.7776C44.612 26.7776 43.6674 25.833 43.6674 24.6679C43.6665 24.1078 43.8883 23.5702 44.284 23.1738C44.6798 22.7774 45.2169 22.5546 45.7771 22.5546Z" fill="#7600ff" fill-rule="nonzero" opacity="1" stroke="none" layerName="path 15"/>
<path d="M7.77434 22.5546L37.3312 22.5546C38.4963 22.5546 39.4408 23.4991 39.4408 24.6642C39.4408 25.8293 38.4963 26.7739 37.3312 26.7739L7.77434 26.7739C6.61067 26.7739 5.66676 25.8316 5.66472 24.6679C5.66374 24.1078 5.88557 23.5702 6.28131 23.1738C6.67704 22.7774 7.21419 22.5546 7.77434 22.5546Z" fill="#07eff8" fill-rule="nonzero" opacity="1" stroke="none" layerName="path 16"/>
<path d="M20.4431 64.7803L58.4459 64.7803C59.611 64.7803 60.5555 65.7248 60.5555 66.8899C60.5555 68.055 59.611 68.9995 58.4459 68.9995L20.4431 68.9995C19.278 68.9995 18.3335 68.055 18.3335 66.8899C18.3335 65.7248 19.278 64.7803 20.4431 64.7803Z" fill="#f7ba3e" fill-rule="nonzero" opacity="1" stroke="none" layerName="path 17"/>
<path d="M7.77434 64.7803L11.9973 64.7803C13.1624 64.7803 14.1069 65.7248 14.1069 66.8899C14.1069 68.055 13.1624 68.9995 11.9973 68.9995L7.77434 68.9995C6.60923 68.9995 5.66472 68.055 5.66472 66.8899C5.66472 65.7248 6.60923 64.7803 7.77434 64.7803Z" fill="#7600ff" fill-rule="nonzero" opacity="1" stroke="none" layerName="path 18"/>
<path d="M58.4459 31.0005L79.5569 31.0005C80.722 31.0005 81.6665 31.945 81.6665 33.1101C81.6675 33.6703 81.4456 34.2078 81.0499 34.6042C80.6542 35.0007 80.117 35.2234 79.5569 35.2234L58.4459 35.2234C57.2808 35.2234 56.3363 34.2789 56.3363 33.1138C56.3353 32.5537 56.5571 32.0161 56.9528 31.6197C57.3486 31.2233 57.8857 31.0005 58.4459 31.0005Z" fill="#ff00ff" fill-rule="nonzero" opacity="1" stroke="none" layerName="path 19"/>
<path d="M58.4459 39.4464L79.5569 39.4464C80.722 39.4464 81.6665 40.3909 81.6665 41.556C81.6665 42.7211 80.722 43.6656 79.5569 43.6656L58.4459 43.6656C57.2808 43.6656 56.3363 42.7211 56.3363 41.556C56.3363 40.3909 57.2808 39.4464 58.4459 39.4464Z" fill="#f7ba3e" fill-rule="nonzero" opacity="1" stroke="none" layerName="path 20"/>
<path d="M7.77434 5.66657L58.4459 5.66657C59.611 5.66657 60.5555 6.61108 60.5555 7.77619C60.5555 8.9413 59.611 9.88581 58.4459 9.88581L7.77434 9.88581C6.60923 9.88581 5.66472 8.9413 5.66472 7.77619C5.66472 6.61108 6.60923 5.66657 7.77434 5.66657Z" fill="#07eff8" fill-rule="nonzero" opacity="1" stroke="none" layerName="path 21"/>
<path d="M66.888 5.66657L92.222 5.66657C92.7821 5.66559 93.3197 5.88742 93.7161 6.28316C94.1125 6.67889 94.3353 7.21604 94.3353 7.77619C94.3353 8.9413 93.3908 9.88581 92.2257 9.88581L66.888 9.88581C65.7229 9.88581 64.7784 8.9413 64.7784 7.77619C64.7784 6.61108 65.7229 5.66657 66.888 5.66657ZM66.888 64.7803L75.3339 64.7803C76.499 64.7803 77.4435 65.7248 77.4435 66.8899C77.4435 68.055 76.499 68.9995 75.3339 68.9995L66.888 68.9995C65.7229 68.9995 64.7784 68.055 64.7784 66.8899C64.7784 65.7248 65.7229 64.7803 66.888 64.7803ZM83.7798 64.7803L92.2257 64.7803C93.3908 64.7803 94.3353 65.7248 94.3353 66.8899C94.3353 68.055 93.3908 68.9995 92.2257 68.9995L83.7798 68.9995C82.6147 68.9995 81.6702 68.055 81.6702 66.8899C81.6702 65.7248 82.6147 64.7803 83.7798 64.7803ZM79.5569 56.3344L92.2257 56.3344C93.3908 56.3344 94.3353 57.2789 94.3353 58.444C94.3353 59.6091 93.3908 60.5536 92.2257 60.5536L79.5569 60.5536C78.3917 60.5536 77.4472 59.6091 77.4472 58.444C77.4472 57.2789 78.3917 56.3344 79.5569 56.3344ZM79.5569 14.1124L92.2257 14.1124C93.3908 14.1124 94.3353 15.0569 94.3353 16.2221C94.3353 17.3872 93.3908 18.3317 92.2257 18.3317L79.5569 18.3317C78.3917 18.3317 77.4472 17.3872 77.4472 16.2221C77.4472 15.0569 78.3917 14.1124 79.5569 14.1124ZM83.7798 47.8922L92.2257 47.8922C93.3908 47.8922 94.3353 48.8367 94.3353 50.0018C94.3353 51.167 93.3908 52.1115 92.2257 52.1115L83.7798 52.1115C83.2196 52.1125 82.6821 51.8906 82.2857 51.4949C81.8892 51.0991 81.6665 50.562 81.6665 50.0018C81.6665 49.4417 81.8892 48.9046 82.2857 48.5088C82.6821 48.1131 83.2196 47.8912 83.7798 47.8922ZM83.7798 22.5546L92.2257 22.5546C92.7858 22.5546 93.323 22.7774 93.7187 23.1738C94.1144 23.5702 94.3363 24.1078 94.3353 24.6679C94.3353 25.833 93.3908 26.7776 92.2257 26.7776L83.7798 26.7776C82.6147 26.7776 81.6702 25.833 81.6702 24.6679C81.6692 24.1078 81.891 23.5702 82.2868 23.1738C82.6825 22.7774 83.2196 22.5546 83.7798 22.5546ZM88.0027 31.0005L92.2257 31.0005C93.3908 31.0005 94.3353 31.945 94.3353 33.1101C94.3353 34.2752 93.3908 35.2197 92.2257 35.2197L88.0027 35.2197C86.8376 35.2197 85.8931 34.2752 85.8931 33.1101C85.8931 31.945 86.8376 31.0005 88.0027 31.0005ZM88.0027 39.4464L92.2257 39.4464C93.3908 39.4464 94.3353 40.3909 94.3353 41.556C94.3353 42.7211 93.3908 43.6656 92.2257 43.6656L88.0027 43.6656C86.8376 43.6656 85.8931 42.7211 85.8931 41.556C85.8931 40.3909 86.8376 39.4464 88.0027 39.4464ZM54.2229 73.2261L92.2257 73.2261C93.3908 73.2261 94.3353 74.1707 94.3353 75.3358C94.3353 76.5009 93.3908 77.4454 92.2257 77.4454L54.2229 77.4454C53.0578 77.4454 52.1133 76.5009 52.1133 75.3358C52.1133 74.1707 53.0578 73.2261 54.2229 73.2261ZM37.3312 73.2261L45.7771 73.2261C46.9422 73.2261 47.8867 74.1707 47.8867 75.3358C47.8867 76.5009 46.9422 77.4454 45.7771 77.4454L37.3312 77.4454C36.1661 77.4454 35.2216 76.5009 35.2216 75.3358C35.2216 74.1707 36.1661 73.2261 37.3312 73.2261ZM71.111 90.1142L92.222 90.1142C93.3871 90.1142 94.3316 91.0587 94.3316 92.2238C94.3316 93.3889 93.3871 94.3334 92.222 94.3334L71.111 94.3334C69.9459 94.3334 69.0014 93.3889 69.0014 92.2238C69.0014 91.0587 69.9459 90.1142 71.111 90.1142ZM37.3312 90.1142L62.6651 90.1142C63.8302 90.1142 64.7747 91.0587 64.7747 92.2238C64.7747 93.3889 63.8302 94.3334 62.6651 94.3334L37.3312 94.3334C36.1675 94.3334 35.2236 93.3912 35.2216 92.2275C35.2206 91.6674 35.4424 91.1298 35.8382 90.7334C36.2339 90.337 36.771 90.1142 37.3312 90.1142ZM37.3312 31.0005L50 31.0005C51.1651 31.0005 52.1096 31.945 52.1096 33.1101C52.1106 33.6703 51.8888 34.2078 51.493 34.6042C51.0973 35.0007 50.5601 35.2234 50 35.2234L37.3312 35.2234C36.1661 35.2234 35.2216 34.2789 35.2216 33.1138C35.2206 32.5537 35.4424 32.0161 35.8382 31.6197C36.2339 31.2233 36.771 31.0005 37.3312 31.0005ZM37.3312 39.4464L50 39.4464C51.1651 39.4464 52.1096 40.3909 52.1096 41.556C52.1096 42.7211 51.1651 43.6656 50 43.6656L37.3312 43.6656C36.1661 43.6656 35.2216 42.7211 35.2216 41.556C35.2216 40.3909 36.1661 39.4464 37.3312 39.4464Z" fill="#efefef" fill-rule="nonzero" opacity="0.5" stroke="none" layerName="path 22"/>
</g>
</g>
</svg>

<svg xmlns="http://www.w3.org/2000/svg" xml:space="preserve" stroke-linecap="round" stroke-linejoin="round" stroke-miterlimit="10" clip-rule="evenodd" width="100%" height="100%" viewBox="3.022 3.107 93.957 93.953"><defs><filter id="b" width="93.957" height="93.953" x="3.022" y="3.107" color-interpolation-filters="sRGB" filterUnits="userSpaceOnUse"><feDropShadow dx="0" dy=".084" flood-color="#000" flood-opacity=".55" in="SourceGraphic" result="Shadow" stdDeviation="1.057"/></filter></defs><path fill="#07eff8" d="M71.111 22.555h4.223a2.11 2.11 0 1 1 0 4.219H71.11a2.11 2.11 0 0 1 0-4.22Z"/><path fill="#f0f" d="M7.774 90.114h21.111a2.11 2.11 0 1 1 0 4.22H7.775a2.11 2.11 0 1 1 0-4.22Z"/><path fill="#7600ff" d="M58.446 56.334h12.669a2.11 2.11 0 1 1 0 4.22h-12.67a2.11 2.11 0 1 1 0-4.22Z"/><path fill="#f0f" d="M33.112 56.334H50a2.11 2.11 0 1 1 0 4.22H33.112a2.11 2.11 0 1 1 0-4.22Z"/><path fill="#07eff8" d="M7.774 56.334h16.892a2.11 2.11 0 1 1 0 4.22H7.774a2.11 2.11 0 1 1 0-4.22Z"/><path fill="#7600ff" d="M7.774 73.226h21.111a2.11 2.11 0 0 1 0 4.22H7.775a2.11 2.11 0 1 1 0-4.22Zm0-33.78h21.111a2.11 2.11 0 1 1 0 4.22H7.775a2.11 2.11 0 1 1 0-4.22Z"/><path fill="#f7ba3e" d="M28.889 14.112h42.222a2.11 2.11 0 0 1 0 4.22H28.889a2.11 2.11 0 1 1 0-4.22Z"/><path fill="#f0f" d="M7.774 14.112h12.67a2.11 2.11 0 0 1 2.109 2.11 2.11 2.11 0 0 1-2.11 2.113H7.774a2.11 2.11 0 0 1-2.11-2.113 2.11 2.11 0 0 1 2.11-2.11Z"/><path fill="#f7ba3e" d="M24.666 81.668h4.223a2.11 2.11 0 1 1 0 4.22h-4.223a2.11 2.11 0 0 1 0-4.22Z"/><path fill="#07eff8" d="M24.666 31h4.223a2.11 2.11 0 1 1 0 4.22h-4.223a2.11 2.11 0 1 1 0-4.22ZM7.774 81.668h8.446a2.11 2.11 0 1 1 0 4.22H7.774a2.11 2.11 0 0 1 0-4.22Z"/><path fill="#f7ba3e" d="M7.774 31h8.446a2.11 2.11 0 0 1 2.11 2.11 2.11 2.11 0 0 1-2.11 2.113H7.774a2.11 2.11 0 0 1-2.11-2.11A2.11 2.11 0 0 1 7.775 31Z"/><path fill="#efefef" d="M62.669 81.668h4.223a2.11 2.11 0 1 1 0 4.22h-4.223a2.11 2.11 0 0 1 0-4.22Zm-25.338 0H54.22a2.11 2.11 0 1 1 0 4.22H37.331a2.11 2.11 0 0 1 0-4.22Zm38.003 0h16.888a2.11 2.11 0 1 1 0 4.22H75.334a2.11 2.11 0 0 1 0-4.22Z" opacity=".5"/><path fill="#07eff8" d="M41.554 47.892h33.78a2.11 2.11 0 1 1 0 4.22h-33.78a2.11 2.11 0 0 1 0-4.22Z"/><path fill="#f7ba3e" d="M20.443 47.892h12.669a2.11 2.11 0 1 1 0 4.22H20.443a2.11 2.11 0 0 1 0-4.22Z"/><path fill="#f0f" d="M7.774 47.892h4.223a2.11 2.11 0 1 1 .004 4.22H7.774a2.11 2.11 0 0 1 0-4.22Z"/><path fill="#7600ff" d="M45.777 22.555h16.888a2.11 2.11 0 0 1 2.113 2.113 2.11 2.11 0 0 1-2.11 2.11h-16.89a2.11 2.11 0 0 1-1.494-3.604 2.11 2.11 0 0 1 1.493-.62Z"/><path fill="#07eff8" d="M7.774 22.555h29.557a2.11 2.11 0 1 1 0 4.219H7.774a2.11 2.11 0 0 1 0-4.22Z"/><path fill="#f7ba3e" d="M20.443 64.78h38.003a2.11 2.11 0 1 1 0 4.22H20.443a2.11 2.11 0 1 1 0-4.22Z"/><path fill="#7600ff" d="M7.774 64.78h4.223a2.11 2.11 0 1 1 0 4.22H7.774a2.11 2.11 0 1 1 0-4.22Z"/><path fill="#f0f" d="M58.446 31h21.11a2.11 2.11 0 0 1 2.11 2.11 2.11 2.11 0 0 1-2.11 2.113h-21.11a2.11 2.11 0 0 1-2.11-2.11A2.11 2.11 0 0 1 58.446 31Z"/><path fill="#f7ba3e" d="M58.446 39.446h21.11a2.11 2.11 0 1 1 0 4.22h-21.11a2.11 2.11 0 1 1 0-4.22Z"/><path fill="#07eff8" d="M7.774 5.667h50.672a2.11 2.11 0 0 1 0 4.219H7.774a2.11 2.11 0 0 1 0-4.22Z"/><path fill="#efefef" d="M66.888 5.667h25.334a2.11 2.11 0 1 1 .004 4.219H66.888a2.11 2.11 0 0 1 0-4.22Zm0 59.113h8.446a2.11 2.11 0 1 1 0 4.22h-8.446a2.11 2.11 0 1 1 0-4.22Zm16.892 0h8.446a2.11 2.11 0 1 1 0 4.22H83.78a2.11 2.11 0 1 1 0-4.22Zm-4.223-8.446h12.669a2.11 2.11 0 1 1 0 4.22h-12.67a2.11 2.11 0 1 1 0-4.22Zm0-42.222h12.669a2.11 2.11 0 0 1 0 4.22h-12.67a2.11 2.11 0 1 1 0-4.22Zm4.223 33.78h8.446a2.11 2.11 0 1 1 0 4.22H83.78a2.11 2.11 0 1 1 0-4.22Zm0-25.337h8.446a2.11 2.11 0 0 1 2.11 2.113 2.11 2.11 0 0 1-2.11 2.11H83.78a2.11 2.11 0 0 1-2.11-2.11 2.11 2.11 0 0 1 2.11-2.113ZM88.003 31h4.223a2.11 2.11 0 1 1 0 4.22h-4.223a2.11 2.11 0 1 1 0-4.22Zm0 8.446h4.223a2.11 2.11 0 1 1 0 4.22h-4.223a2.11 2.11 0 1 1 0-4.22Zm-33.78 33.78h38.003a2.11 2.11 0 0 1 0 4.22H54.223a2.11 2.11 0 1 1 0-4.22Zm-16.892 0h8.446a2.11 2.11 0 0 1 0 4.22h-8.446a2.11 2.11 0 1 1 0-4.22Zm33.78 16.888h21.111a2.11 2.11 0 1 1 0 4.22H71.111a2.11 2.11 0 1 1 0-4.22Zm-33.78 0h25.334a2.11 2.11 0 1 1 0 4.22H37.331a2.11 2.11 0 1 1 0-4.22Zm0-59.114H50a2.11 2.11 0 0 1 2.11 2.11A2.11 2.11 0 0 1 50 35.223H37.331a2.11 2.11 0 0 1-2.11-2.11A2.11 2.11 0 0 1 37.332 31Zm0 8.446H50a2.11 2.11 0 1 1 0 4.22H37.331a2.11 2.11 0 1 1 0-4.22Z" opacity=".5"/></svg>
